!!!COM: Beethoven
!!!OTL: 9 Variationen uber "Quant' e piu bello" von G. Paisiello
!!!Variation: Theme b
**kern
*clefG2
*k[f#c#g#]
*M2/4
*A:
=9
4ee
.
4ee
.
=10
8dd
8bJ
4g#
.
=11
8ee
8ee
8ee
8ee
=12
8dd
8bJ
4g#
.
=13
16aLL
16cc#
16b
16ddJJ
16cc#LL
16ee
16dd
16ff#JJ
=14
(4ee
8aa)
8r
=15
4cc#
q8cc#
(16bLL
16a
16b
16cc#JJ)
=16
4a
8r
8e
*-
